X:67
T:Blanches Hornpipe. JBu.67
O:England,South Yorkshire
S:Joshua Burnett’s MS,c1835,S.Yorkshire
M:4/4
L:1/8
Q:1/2=80
R:.hornpipe
Z:vmp.R.Greig.2011
K:Bb
dc|BFDF BFdB|cAFA cedc|BFDF BFdB|”triplets in ms”c/d/B A/B/G F2dc|
BFDF BFdB|cAFA cdec|”triplet in ms”df/d/ Bd/B/ ce/c/ Ac/A/|B2B2B2:|
|:”qu in MS”f2|dBfB dBfB|ecgc ecgc|dBfB dBfB|cd/B/ AB/G/F2Bc|
dBfB dBfB|ecgc ecgc|”^alternative bar?”ecgb ecgb|f2dB FecA|B2B2B2:|

